core/solid/interface-essential/trophy.svg

<svg xmlns="http://www.w3.org/2000/svg" fill="none" viewBox="0 0 14 14" id="Trophy--Streamline-Core">
  <desc>
    Trophy Streamline Icon: https://streamlinehq.com
  </desc>
  <g id="trophy--reward-rating-trophy-social-award-media">
    <path id="Union" fill="#000000" fill-rule="evenodd" d="M0 0.749908c0 -0.414213 0.335786 -0.7499995527 0.75 -0.7499995527h2.88462c0.01876 0 0.03737 0.0006892797 0.05579 0.0020439027h6.62089c0.0179 -0.001297666 0.036 -0.0019530653 0.0541 -0.0019530653H13.25c0.4142 0 0.75 0.3357867153 0.75 0.7499997153V3.63499c0 1.85926 -1.396 3.39246 -3.1971 3.60855 -0.4474 1.3692 -1.61369 2.41325 -3.0529 2.68626V12.5h2.6154c0.4142 0 0.75 0.3358 0.75 0.75s-0.3358 0.75 -0.75 0.75H7.02626c-0.00872 0.0003 -0.01747 0.0005 -0.02626 0.0005s-0.01754 -0.0002 -0.02626 -0.0005H3.63461c-0.41421 0 -0.75 -0.3358 -0.75 -0.75s0.33579 -0.75 0.75 -0.75H6.25V9.9298c-1.43921 -0.27301 -2.60549 -1.31707 -3.05293 -2.68626C1.39604 7.02745 0 5.49425 0 3.63499V0.749908ZM2.88462 5.63413V1.49991H1.5v2.13508c0 0.91499 0.57569 1.69552 1.38462 1.99914ZM11.1154 1.5v4.13413C11.9243 5.33051 12.5 4.54998 12.5 3.63499V1.5h-1.3846Z" clip-rule="evenodd" stroke-width="1"></path>
  </g>
</svg>

<svg xmlns="http://www.w3.org/2000/svg" fill="none" viewBox="0 0 14 14"><g id="trophy--reward-rating-trophy-social-award-media"><path id="Union" fill="#3e3e3e" fill-rule="evenodd" d="M0 .75A.75.75 0 0 1 .75 0h2.885a.76.76 0 0 1 .055.002h6.621A.75.75 0 0 1 10.365 0h2.885a.75.75 0 0 1 .75.75v2.885a3.635 3.635 0 0 1-3.197 3.609A4.006 4.006 0 0 1 7.75 9.93v2.57h2.615a.75.75 0 0 1 0 1.5H7.026a.763.763 0 0 1-.052 0h-3.34a.75.75 0 0 1 0-1.5H6.25V9.93a4.006 4.006 0 0 1-3.053-2.686A3.635 3.635 0 0 1 0 3.635V.75Zm2.885 4.884V1.5H1.5v2.135c0 .915.576 1.696 1.385 2Zm8.23-4.134v4.134A2.135 2.135 0 0 0 12.5 3.635V1.5h-1.385Z" clip-rule="evenodd"></path></g></svg>
